X:1
T:Hunt the Buffalo
M:4/4
L:1/8
K:Ab
 E2| A3/2 A/2 A3/2 A/2 A3/2- E/2 C3/2 E/2| A3/2 G/2 A3/2 B/2 A3 B|\
 c3/2 c/2 c3/2 c/2 e3/2- c/2 A3/2 A/2| B2 E3/2 E/2 E2| z c| e3/2 c/2 A3/2 c/2 e2 c3/2 A/2|\
 B3/2 A/2 G3/2 F/2 E2 C3/2 E/2| A/2 A3/2 A3/2 A/2 A2 E3/2 E/2| A3/2 A/2 B3/2 c/2 d2|\
 cB| c2 e2 B2 cd| e2 f3/2 e/2 ec A3/2 B/2| c3/2 A/2 A3/2 A/2 A2 c3/2 A/2|\
 B3/2 E/2 E3/2 E/2 E2| cd| e2 f3/2 e/2 ec AB| c3/2 A/2 A3/2 A/2 A2||\
